X:1
T:Saint John Passion
T:Und siehe da, der Vorhang im Tempel zeriß in zwei Stück
T: BWV 245 NBA #33 Und siehe da, der Vorhang im Tempel zeriß in zwei Stück
T: Recitativo secco for the Evangelist in the Saint John Passion - Not used in 1732 More at http://bach.ejmaurath.com This was uploaded in Musescore 2
T:Johann Sebastian Bach (1685--1750) 
T:Saint John the Apostle, Heilige Schrift, Martin Luther 
T:Sequenced by Edward J. Maurath
T:Sequenced by Edward J. Maurath
C:Johann Sebastian Bach
Z:Saint John the Apostle
Z:Sequenced by Edward J. Maurath
%%score 1 { 2 | 3 }
L:1/8
Q:1/4=54
M:4/4
K:G
V:1 treble transpose=-12 nm="Evangelista" snm="TEN"
V:2 treble nm="Cembalo" snm="CEM"
V:3 bass 
V:1
 z2 z/ B/^d/e/ .f2 z B | aa/f/ ^dd/e/ fA/B/ .c>A | a/f/^d/B/ A/G/A G2 z B/E/ | %3
 =FF/F/ _B/B/B z d/B/ =fe/d/ | ^gg z E/F/ ^GA BG/E/ | e2 z/ A/c/e/ af/e/ ^dd/e/ | e>B B2 z4 |] %7
V:2
 [FB]8- | [FB]4 [FA]4- | [B,FA]4 z/4 e/4d/4c/4B/4A/4G/4F/4 E/4D/4C/4B,/4A,/4G,/4F,/4E,/4 | %3
 [=F,_B,]4 [D=F]/4B,/4[DF]/4B,/4[DF]/4B,/4[DF]/4B,/4 [DF]/4B,/4[DF]/4B,/4[DF]/4B,/4[DF]/4B,/4 | %4
 [E^G]/4B,/4[EG]/4B,/4[EG]/4B,/4[EG]/4B,/4 [EG]/4B,/4[EG]/4B,/4[EG]/4B,/4[EG]/4B,/4 [EG]/4B,/4[EG]/4B,/4[EG]/4B,/4[EG]/4B,/4 [EG]/4B,/4[EG]/4B,/4[EG]/4B,/4[EG]/4B,/4 | %5
 [EA]/4A,/4[EA]/4A,/4[EA]/4A,/4[EA]/4A,/4 [EA]/4A,/4[EA]/4A,/4[EA]/4A,/4[EA]/4A,/4 .[A,^DF]2 z2 | %6
 z4 [B,EG][F,B,^DF] [G,B,E]2 |] %7
V:3
 [^D,B,]8- | [D,B,]4 ^D,4- | %2
 D,4 z/4 E/4D/4C/4B,/4A,/4G,/4F,/4 E,/4=D,/4C,/4B,,/4A,,/4G,,/4F,,/4E,,/4 | %3
 D,,/4D,/4D,,/4D,/4D,,/4D,/4D,,/4D,/4 D,,/4D,/4D,,/4D,/4D,,/4D,/4D,,/4D,/4 D,,/4D,/4D,,/4D,/4D,,/4D,/4D,,/4D,/4 D,,/4D,/4D,,/4D,/4D,,/4D,/4D,,/4D,/4 | %4
 D,,/4D,/4D,,/4D,/4D,,/4D,/4D,,/4D,/4 D,,/4D,/4D,,/4D,/4D,,/4D,/4D,,/4D,/4 D,,/4D,/4D,,/4D,/4D,,/4D,/4D,,/4D,/4 D,,/4D,/4D,,/4D,/4D,,/4D,/4D,,/4D,/4 | %5
 C,,/4C,/4C,,/4C,/4C,,/4C,/4C,,/4C,/4 C,,/4C,/4C,,/4C,/4C,,/4C,/4C,,/4C,/4 .[C,,C,]2 z2 | %6
 z4 B,,2 E,,2 |] %7

